X: 221
M: C|
L: 1/8
K: A
V: 1
e |\
V: 2 clef=bass middle=d
z |\
a2a2 a2[a2d'2] | a2[a2c'2] [a2c'2]a2 | a2a2 a2a2 | =g2g2 [g2b2]g2 :|
[a2c'2][a2c'2] a2[a2c'2] | a2a2 [a2c'2]a2 | [a2c'2][a2c'2] a2[a2c'2] | =g2g2 g2g2 |
[a2c'2][a2c'2] a2[a2c'2] | a2a2 [a2c'2]a2 | a2a2 [a2c'2]a2 | =g2g2 g2g2 |]


